IMB-X-Files/The-Ambassadors-Assets/66156a2141051ebd8f879f13_﹟62.svg

<svg fill="none" height="105" viewBox="0 0 104 105" width="104" xmlns="http://www.w3.org/2000/svg"><path d="m41.0968 62.8759c6.7709 2.991 14.6823 3.171 21.809.0231m-21.809-.0231c.8648-7.7115 4.9623-14.4432 10.9032-18.8036m-10.9032 18.8036c-.1126 1.0034-.1704 2.0234-.1704 3.057 0 14.9574 12.1048 27.0827 27.0368 27.0827s27.0368-12.1253 27.0368-27.0827-12.1048-27.0828-27.0368-27.0828c-5.9708 0-11.4896 1.9388-15.9632 5.2222m-10.9032 18.8036c-5.0704-2.2399-9.5014-6.0561-12.4844-11.2316-7.466-12.9535-3.0354-29.5171 9.8961-36.9958 12.9315-7.47865 29.467-3.0405 36.933 9.913s3.0353 29.517-9.8962 36.9957c-.8649.5003-1.746.9472-2.6395 1.3418m0 0c-.8592-7.7211-4.9589-14.4619-10.9058-18.8267m10.9058 18.8267c.1109.996.1678 2.0083.1678 3.0339 0 14.9574-12.1048 27.0827-27.0368 27.0827s-27.0368-12.1253-27.0368-27.0827 12.1048-27.0828 27.0368-27.0828c5.9709 0 11.4896 1.9388 15.9632 5.2222m-6.4505 6.71 8.5914-4.9643m-11.1038 9.6064 13.1207-7.5816m-14.4328 11.53 16.1899-9.3551m-16.7689 12.88 18.2782-10.5619m-14.8841 11.7909 16.1487-9.3313m-12.0857 10.1738 13.1008-7.5701m-7.859 7.7314 8.6118-4.9762" stroke="#a88cf9" stroke-linecap="round" stroke-linejoin="round"/></svg>

<svg width="104" height="105" viewBox="0 0 104 105" fill="none" xmlns="http://www.w3.org/2000/svg">
    <path
        d="M41.0968 62.8759C47.8677 65.8669 55.7791 66.0469 62.9058 62.899M41.0968 62.8759C41.9616 55.1644 46.0591 48.4327 52 44.0723M41.0968 62.8759C40.9842 63.8793 40.9264 64.8993 40.9264 65.9329C40.9264 80.8903 53.0312 93.0156 67.9632 93.0156C82.8952 93.0156 95 80.8903 95 65.9329C95 50.9755 82.8952 38.8501 67.9632 38.8501C61.9924 38.8501 56.4736 40.7889 52 44.0723M41.0968 62.8759C36.0264 60.636 31.5954 56.8198 28.6124 51.6443C21.1464 38.6908 25.577 22.1272 38.5085 14.6485C51.44 7.16985 67.9755 11.608 75.4415 24.5615C82.9075 37.515 78.4768 54.0785 65.5453 61.5572C64.6804 62.0575 63.7993 62.5044 62.9058 62.899M62.9058 62.899C62.0466 55.1779 57.9469 48.4371 52 44.0723M62.9058 62.899C63.0167 63.895 63.0736 64.9073 63.0736 65.9329C63.0736 80.8903 50.9688 93.0156 36.0368 93.0156C21.1048 93.0156 9 80.8903 9 65.9329C9 50.9755 21.1048 38.8501 36.0368 38.8501C42.0077 38.8501 47.5264 40.7889 52 44.0723M45.5495 50.7823L54.1409 45.818M43.0371 55.4244L56.1578 47.8428M41.725 59.3728L57.9149 50.0177M41.146 62.8977L59.4242 52.3358M44.5401 64.1267L60.6888 54.7954M48.6031 64.9692L61.7039 57.3991M53.8449 65.1305L62.4567 60.1543"
        stroke="#A88CF9" stroke-linecap="round" stroke-linejoin="round" />
</svg>
